X:1
T:Fugue No. 1 in G minor
T:Fugue No. 1 in G minor
T:HMW 605
T:George Frideric Handel (1685-1759)
C:George Frederick Handel (1685-1759)
%%score { ( 1 3 ) | ( 2 4 ) }
L:1/8
Q:1/4=116
M:4/4
K:Bb
V:1 treble nm="Grand Piano" snm="Pno."
V:3 treble 
V:2 bass 
V:4 bass 
V:1
"^Allegretto" z2 d2 G2 A2 | B2 AG Te4 | d3 d G2 c2- | c2 B2 AB/c/ dc | BA Bc/B/ Ad-d^c | %5
 d=e/d/ ef d4 | z aaa bbag | ad/^c/ d2- d^cd=e | f3 _e/d/ e3 e | d2 d2- dG c2- | c2 B2 A4 | %11
 G2 ^F2 GD G2 | z G A3/2G/4A/4 BAG^F | G3 A ^FD DE/D/ | z AAA BBAG | ADdc BA G2- | GAF=E F2 E2 | %17
 z ddd eedc | dGgf e3 f/e/ | d2 f2- f2 e2- | ef d2- decB | z ccc ddcB | cF f2- fg T=e2 | %23
 f2 B2- BcAG | x4 z2 f2 | B2 c2 d2 cB | g4 f3 f | BB e2- e2 de | c4 B2 e2- | efdc =B2 GF | %30
 E2 F2 G3 F/E/ | x4 z GGG | _AAGF GC [Cc-]2 | cB/_A/ BG =EC c2 | F2 G2 _A2 GF | _d4 c2- cc | %36
 F2 B2- BG_AF | G2- G=A/B/ AF B2- | BABc _d2- de/d/ | c2- cc Be-ed | eE B2- B2 _A2- | %41
 AB/_A/ GF E2- ED/C/ | DB, B,C/B,/ z FFF | GGFE z ddd | eedc dG g2- | gc f2- f2 e2 | %46
 d2- dd- dd c2- | cdBA A2 ^F2 | G2 c2- c2 g2 | d2 =e2 [df]2 ed | b4 a3 a | d2 g2- g2 fg/f/ | %52
 =e3 e d2 =cB | A3 B =E^F/G/ AG | ^FD G2- GA/G/ ^FG/A/ | z2 d2 G2 A2 | B2 AG e4 | d4 z gab | %58
 ^fd de/d/ c3 d/c/ | B3 B A3 d | G3 c F2 B2- | B2 AG z ddd | z aaa bbag | a2 d2 B2 ^FG/A/ | %64
 z2 d2 G2 A2 | B2 AG Te4 | d3 d G2 c2 |[Q:1/4=71]"^Adagio" [Ac]4 [GB]4 | [GA]4 ^F4 | [DG]8 |] %70
V:2
 z8 | z8 | z8 | z8 | z2 G,2 D,2 =E,2 | F,2 =E,D, TB,4 |[I:staff -1] AGF[I:staff +1]=E D2 E2 | %7
 ^C=E A,2 E3 G, | A,DA,=B, C2 C2- | C=B,C[I:staff -1]D[I:staff +1] x4 | x4 z2 D2 | %11
 G,2 A,2 B,2 A,G, | x4 z D,D,D, | E,E,D,C, D,D, G,2- | G,2 ^F,2 G,2 C2 | F,3 F, G,A,B,G, | %16
 A,F,B,G, A,A,,A,G, |[I:staff -1] D2[I:staff +1] =B,2 C2 C2- | C2 =B,2 C_B,A,F, | B,CDD, E,F,G,A, | %20
 B,B,,D,B,, E,F,G,E, | C2 CF, D2 =E2 | C2 C2 C4 | x8 | B,G,CB, A,F,G,A, | B,2 z2 B,B,CD | %26
[I:staff -1] E[I:staff +1]E,[I:staff -1] E2- EEDC |[I:staff +1] B,2 C2[I:staff -1] F2 F2 | %28
 ECFE DB, G2 |[I:staff +1] F,F,, F,2- F,F,E,D, | z C_B,_A, G,=A,/=B,/ C2- | %31
 C[I:staff -1]ED[I:staff +1]C =B,3 B, | C2 F,2- F,2 x2 | F,2 G,2 _A,2 G,F, | %34
 B,,2 E,2 _A,,F,,G,,A,, | F,2 B,2- B,2 _A,2- | A,2 G,F, =E,2 F,2- | F,_E,/=D,/ E,2- E,2 _D,B,, | %38
 F,2 G,A, B,_A,G,E, | _A,B,CD E2 x2 | G,2 F,E, C4 | B,2- B,B, E,2 _A,2- | A,2 G,2 _A,2- A,B,/A,/ | %43
 G,_A,B,C D2 G,2 | G,2 C2- C2 =B,2 | C2- C2 x4 | x4 z B,_A,G, | ^F,2 G,2 z DDD | %48
 G,,2 A,,2 B,,2- B,,A,,/G,,/ | x6 F2- | FF=ED [A^c]2 x2 | x8 | z A,A,A, B,B,A,G, | A,D, x2 x4 | %54
 x4 A,4- | A,A,G,F, E,EDC | DG,A,B, x[I:staff -1] B AG | ^F3 F G2[I:staff +1] x2 | x8 | x8 | x8 | %61
 x4 D4 | C4 G,4 | D4 x4 | z G,^F,G, x4 | x2 G,2 z A,A,A, | B,B,A,G, C2 A,2 | [^F,A,]4 [G,B,]4 | %68
 [D,,D,A,]8 | [G,,B,]8 |] %70
V:3
 x8 | x8 | z DDD EEDC | DG, G2- G2 ^F2 | G4 =F2 G2 | A2- A2 A2 G2 | ^c4 z dc=B | A3 _B/A/ G4 | %8
 F3 G E2 z2 | x4 E3 E | D^F G2- G2 F2 | G2 z2 x4 | E4 D3 D | G,2 C2- C2 B,2 | C3 D B,D =E2 | %15
 F3 A D^CD=E | ^CA, D2 D2 =C2- | C2 z2 x2 E2 | F2 D2 G2 c2- | ccBA GABc | F2 BA GFED | %21
 A2 F2 F2 G2 | A2 A2 G4 | FF=ED E2 C2 | G4 F4 | z EDC F4 | z GcB A4 | z BAG A2 B2 | %28
 G2 x2 F2 Bc/B/ | _AGFE D2 =B,2 |[I:staff +1] [C,G,]2 x6 |[I:staff -1] F4- F2 =ED | %32
 =E2 C2[I:staff +1] G,2 =E,[I:staff -1]E | F2 x6 | _DC/D/ D>C C3 C | x4 z CCC | _DDCB, C4 | %37
 C4- C2 z2 | F4 z F B2- | B_A/G/ A2 G2 A2 | B2 FG E4 | D2- DD x4 | x8 | x4 F3 F | E2 E2 D4 | %45
 C3 d =BGGc- | c_B/A/ B2 E2- EE | D2 G2- G^F/=E/ x2 | EEDC DG, [GB]2 | A2 [Bd][A^c] A=E A2 | %50
 d2 g2- g2 f=e | z Gd=e ^c2 A2 | G3 G F2 G2 | F2 D2- D2 C2- | C2 B,2 x4 | D4 x4 | x4 z d c2- | %57
 c2 BA G2 c2- | c2 B2 A4- | A2 G2- G2 F2- | F2 E2- E2 D2 | E4 ^F2 G2 | eedc d2 G2- | G^FGA z G C2 | %64
 D4- DE C3/2B,/4C/4 | D[I:staff +1]^F, x6 |[I:staff -1] z DDD EEDC | [D^F]4 D4 | D4- D3 C | x8 |] %70
V:4
 x8 | x8 | x8 | x8 | x8 | x8 | A,3 A, D,2 G,2- | G,2 F,2 =E,4 | D,3 G, C,D,E,F, | G,3 G, C_B,A,G, | %10
 ^F,D,E,B,, C,A,,D,C, | B,,2 A,,2 G,,2 E,2 | C,2 F,2 B,,4 | E,,4 D,,2 x2 |[I:staff -1] A,2 x6 | %15
 x8 | x8 |[I:staff +1] ^F,2 G,2 C,2 x2 | x8 | x8 | x8 | F,2 A,2 B,4 | A,3 G,/F,/ z C,C,C, | %23
 D,D,C,B,, C,F,, F,2- | F,2 E,2- E,2 D,2 | G,2 A,2 x4 | x4 z F,F,F, | G,G,F,E, F,B,, B,2- | %28
 B,2 _A,2- A,2 G,2 | x4 z2 G,,2 | C,,2 D,,2 E,,2 D,,C,, | _A,,4 G,,3 G, | C,2 _A,2 z C,C,C, | %33
 _D,D,C,B,, C,F,, _A,,2 | x8 | B,,C,_D,B,, =E,C,F,_A,, | B,,2 _D,2 C,4 | C,2- C,C, F,,4 | x8 | %39
 z2 _A,2 E,2 F,2 | x8 | z B,,B,,B,, C,C,B,,_A,, | B,,E,, E,2- [E,F,]2 D,2 | C,4 B,,2 =B,,2 | %44
 C,2[I:staff -1] G2[I:staff +1] z G,G,G, | _A,A,G,F, G,C,C=A, | ^F,D,G,B, C,4 | D,4 z2 D,2 | x8 | %49
 F,,F,G,A, D,CB,A, | G,2 z2 z A,,A,,A,, | B,,B,,A,,G,, A,,D,, D,2- | D,2 ^C,2 D,2 =E,2 | %53
 F,3 G, A,2 A,,2 | D,2 E,D, C,2 D,C, | B,,4 C,4 | G,,2 z2 C4 | z D,,D,,D,, E,,E,,D,,C,, | %58
 D,,G,,, G,,2- G,,A,,/G,,/ ^F,,D,, | G,,A,,B,,C, D,E,F,D, | E,F,G,A, B,A,B,G, | CC, C2- C2 =B,2 | %62
 x8 | z2 D,2 G,,2 A,,2 | B,,2 A,,G,, E,4 | D,4 C,4 | G,2 B,,2 C,4 | D,4 [G,,B,,D,]4 | x8 | x8 |] %70

